X:122
T:Miss Admiral Gordon's Strathspey
M:4/4
L:1/8
R:Strathspey
K:G
|:D | "G"G/G/G G>G G>D G<e | "G"dG "em" E2 E>D | "G"G/G/G G>G G>D G<e | "Am"d>e g<B "D7"d2 d ||
e | "G"d>e gG | "Em"A>B c/B/A/G/ "D7"E2 E>D | "G"G/G/G G>G "E#m"G>D G<e | "C"dB "G"G2 G  :|]
D | "G"B>dg>d "C"e>d"G"g>d | "G7"B>d c/B/A/G/ "C"E2 ED | "G"B>dg>d "C"E>D"G"G>A | "E#m"B>c d/e/f/g/ "D7" d2 d||
f | "G"g>fe>d "G7"e>dc>B | "C"AB c/B/A/G/ "D7"E2 E>D | "G"G/G/G G>G "E#m"G>D G<e | "C"dB "G"G2 G |]
